src/modules/layerManager/components/assets/zoomToExtent.svg

<?xml version="1.0" encoding="UTF-8" standalone="no"?>
<svg
   xmlns:dc="http://purl.org/dc/elements/1.1/"
   xmlns:cc="http://creativecommons.org/ns#"
   xmlns:rdf="http://www.w3.org/1999/02/22-rdf-syntax-ns#"
   xmlns:svg="http://www.w3.org/2000/svg"
   xmlns="http://www.w3.org/2000/svg"
   id="svg4"
   version="1.1"
   viewBox="0 0 16 16"
   class="bi bi-fullscreen"
   fill="currentColor"
   height="16"
   width="16">
  <metadata
     id="metadata10">
    <rdf:RDF>
      <cc:Work
         rdf:about="">
        <dc:format>image/svg+xml</dc:format>
        <dc:type
           rdf:resource="http://purl.org/dc/dcmitype/StillImage" />
        <dc:title></dc:title>
      </cc:Work>
    </rdf:RDF>
  </metadata>
  <defs
     id="defs8" />
  <path
     id="path2"
     d="M 4.4902344,3.4101562 C 3.8964087,3.4097552 3.4097552,3.8964087 3.4101562,4.4902344 v 2.1601562 c 0,0.1576693 0.067439,0.3097286 0.1738282,0.4042969 0.1063893,0.094568 0.2376074,0.1367188 0.3652344,0.1367187 0.1276269,10e-8 0.2607981,-0.04215 0.3671874,-0.1367187 C 4.4227956,6.9601192 4.4902344,6.8080599 4.4902344,6.6503906 V 4.4902344 h 2.1601562 c 0.1576693,0 0.3097286,-0.067439 0.4042969,-0.1738282 C 7.1492558,4.2100169 7.1914063,4.0768457 7.1914062,3.9492188 7.1914063,3.8215918 7.1492558,3.6903737 7.0546875,3.5839844 6.9601192,3.477595 6.8080599,3.4101562 6.6503906,3.4101562 Z m 4.859375,0 C 9.0558041,3.4106658 8.8119372,3.6536423 8.8105469,3.9472656 8.8089203,4.243056 9.0538149,4.4897254 9.3496094,4.4902344 h 2.1601566 v 2.1601562 c 0,0.1576692 0.06744,0.3097287 0.173828,0.4042969 0.106389,0.094568 0.237607,0.1367187 0.365234,0.1367187 0.127627,0 0.260798,-0.04215 0.367188,-0.1367187 0.106389,-0.094568 0.173828,-0.2466277 0.173828,-0.4042969 V 4.4902344 C 12.590245,3.8964092 12.103591,3.4097558 11.509766,3.4101562 Z M 3.9140625,8.8105469 C 3.6329523,8.8293785 3.4100153,9.0678692 3.4101562,9.3496094 v 2.1601566 c -4.004e-4,0.593825 0.486253,1.080479 1.0800782,1.080078 h 2.1601562 c 0.1576692,0 0.3097287,-0.06744 0.4042969,-0.173828 0.094568,-0.10639 0.1367187,-0.239561 0.1367187,-0.367188 0,-0.127627 -0.04215,-0.258845 -0.1367187,-0.365234 -0.094568,-0.10639 -0.2466277,-0.173828 -0.4042969,-0.173828 H 4.4902344 V 9.3496094 C 4.4897254,9.0538149 4.243056,8.8089203 3.9472656,8.8105469 c -0.00802,-9.62e-5 -0.017375,-2.611e-4 -0.025391,0 h -0.00391 z m 8.0996095,0 c -0.28111,0.018832 -0.504047,0.2573223 -0.503906,0.5390625 V 11.509766 H 9.3496094 c -0.1576692,0 -0.3097287,0.06744 -0.4042969,0.173828 -0.094568,0.106389 -0.1367187,0.237607 -0.1367187,0.365234 0,0.127627 0.04215,0.260798 0.1367187,0.367188 0.094568,0.106389 0.2466277,0.173828 0.4042969,0.173828 h 2.1601566 c 0.593824,4e-4 1.080478,-0.486254 1.080078,-1.080078 V 9.3496094 C 12.589333,9.0552711 12.34512,8.8110577 12.050781,8.8105469 c -0.0098,-1.767e-4 -0.01953,-3.533e-4 -0.0293,0 h -0.0039 z"
     style="color:#000000;font-style:normal;font-variant:normal;font-weight:normal;font-stretch:normal;font-size:medium;line-height:normal;font-family:sans-serif;font-variant-ligatures:normal;font-variant-position:normal;font-variant-caps:normal;font-variant-numeric:normal;font-variant-alternates:normal;font-feature-settings:normal;text-indent:0;text-align:start;text-decoration:none;text-decoration-line:none;text-decoration-style:solid;text-decoration-color:#000000;letter-spacing:normal;word-spacing:normal;text-transform:none;writing-mode:lr-tb;direction:ltr;text-orientation:mixed;dominant-baseline:auto;baseline-shift:baseline;text-anchor:start;white-space:normal;shape-padding:0;clip-rule:nonzero;display:inline;overflow:visible;visibility:visible;opacity:1;isolation:auto;mix-blend-mode:normal;color-interpolation:sRGB;color-interpolation-filters:linearRGB;solid-color:#000000;solid-opacity:1;vector-effect:none;fill-opacity:1;fill-rule:nonzero;stroke:none;stroke-width:0.54000002;stroke-linecap:butt;stroke-linejoin:miter;stroke-miterlimit:4;stroke-dasharray:none;stroke-dashoffset:0;stroke-opacity:1;color-rendering:auto;image-rendering:auto;shape-rendering:auto;text-rendering:auto;enable-background:accumulate" />
</svg>

<svg xmlns="http://www.w3.org/2000/svg" width="16" height="16" fill="currentColor" class="bi bi-fullscreen"><path d="M4.49 3.41c-.594 0-1.08.486-1.08 1.08v2.16c0 .158.068.31.174.405a.546.546 0 0 0 .365.136.55.55 0 0 0 .367-.136.549.549 0 0 0 .174-.405V4.49h2.16c.158 0 .31-.067.405-.174a.55.55 0 0 0 .136-.367.546.546 0 0 0-.136-.365.549.549 0 0 0-.405-.174Zm4.86 0a.544.544 0 0 0-.54.537.544.544 0 0 0 .54.543h2.16v2.16c0 .158.067.31.174.405a.546.546 0 0 0 .365.136.55.55 0 0 0 .367-.136.549.549 0 0 0 .174-.405V4.49c0-.594-.486-1.08-1.08-1.08Zm-5.436 5.4a.544.544 0 0 0-.504.54v2.16c0 .594.486 1.08 1.08 1.08h2.16c.158 0 .31-.068.405-.174a.55.55 0 0 0 .136-.367.546.546 0 0 0-.136-.365.549.549 0 0 0-.405-.174H4.49V9.35a.544.544 0 0 0-.543-.54h-.029zm8.1 0a.544.544 0 0 0-.504.54v2.16H9.35a.549.549 0 0 0-.405.174.546.546 0 0 0-.136.365c0 .127.042.26.136.367a.549.549 0 0 0 .405.174h2.16c.594 0 1.08-.486 1.08-1.08V9.35a.544.544 0 0 0-.54-.54h-.032z" style="color:#000;font-style:normal;font-variant:normal;font-weight:400;font-stretch:normal;font-size:medium;line-height:normal;font-family:sans-serif;font-variant-ligatures:normal;font-variant-position:normal;font-variant-caps:normal;font-variant-numeric:normal;font-variant-alternates:normal;font-feature-settings:normal;text-indent:0;text-align:start;text-decoration:none;text-decoration-line:none;text-decoration-style:solid;text-decoration-color:#000;letter-spacing:normal;word-spacing:normal;text-transform:none;writing-mode:lr-tb;direction:ltr;text-orientation:mixed;dominant-baseline:auto;baseline-shift:baseline;text-anchor:start;white-space:normal;shape-padding:0;clip-rule:nonzero;display:inline;overflow:visible;visibility:visible;opacity:1;isolation:auto;mix-blend-mode:normal;color-interpolation:sRGB;color-interpolation-filters:linearRGB;solid-color:#000;solid-opacity:1;vector-effect:none;fill-opacity:1;fill-rule:nonzero;stroke:none;stroke-width:.54000002;stroke-linecap:butt;stroke-linejoin:miter;stroke-miterlimit:4;stroke-dasharray:none;stroke-dashoffset:0;stroke-opacity:1;color-rendering:auto;image-rendering:auto;shape-rendering:auto;text-rendering:auto;enable-background:accumulate"/></svg>
